icons/desktop/16/svg/even-spreads-16.svg

<svg width="16" height="16" viewBox="0 0 16 16" fill="none" xmlns="http://www.w3.org/2000/svg">
<path d="M12.25 5C12.6642 5 13 5.33579 13 5.75V10.75C13 11.1642 12.6642 11.5 12.25 11.5H10.75C10.3358 11.5 10 11.1642 10 10.75C10 10.3358 10.3358 10 10.75 10H11.5V9H10.75C10.3358 9 10 8.66421 10 8.25C10 7.83579 10.3358 7.5 10.75 7.5H11.5V6.5H10.75C10.3358 6.5 10 6.16421 10 5.75C10 5.33579 10.3358 5 10.75 5H12.25Z" fill="black"/>
<path d="M5.25 5C5.66421 5 6 5.33579 6 5.75V7.75C6 8.03408 5.83905 8.29385 5.58496 8.4209L4.5 8.96289V10H5.25C5.66421 10 6 10.3358 6 10.75C6 11.1642 5.66421 11.5 5.25 11.5H3.75C3.33579 11.5 3 11.1642 3 10.75V8.5C3 8.21592 3.16095 7.95615 3.41504 7.8291L4.5 7.28613V6.5H3.75C3.33579 6.5 3 6.16421 3 5.75C3 5.33579 3.33579 5 3.75 5H5.25Z" fill="black"/>
<path fill-rule="evenodd" clip-rule="evenodd" d="M8 2C9.4553 2 11.0559 2.05884 12.7773 2.21289L13.5225 2.28516L13.7812 2.32422C15.0525 2.57884 16 3.69884 16 5.02539V10.9746C16 12.3741 14.9513 13.5653 13.5459 13.7119C11.8584 13.8874 10.0011 14 8 14C6.33683 14 4.48373 13.9228 2.47754 13.7148C1.07827 13.5696 0 12.3897 0 10.9746V5.02539C0 3.62588 1.04865 2.43465 2.4541 2.28809C4.14156 2.11265 5.99888 2 8 2ZM8.75 12.4941C10.4106 12.4701 11.963 12.3682 13.3906 12.2197C14.0189 12.154 14.5 11.6189 14.5 10.9746V5.02539C14.5 4.38652 14.0099 3.84407 13.3672 3.77734C11.714 3.60602 10.1677 3.52921 8.75 3.50879V12.4941ZM7.25 3.50488C5.5894 3.52894 4.03704 3.63184 2.60938 3.78027C1.9811 3.84597 1.5 4.38109 1.5 5.02539V10.9746C1.5 11.6135 1.99009 12.1559 2.63281 12.2227C4.28602 12.394 5.83231 12.4698 7.25 12.4902V3.50488Z" fill="black"/>
</svg>

<!-- This Source Code Form is subject to the terms of the Mozilla Public
   - License, v. 2.0. If a copy of the MPL was not distributed with this
   - file, You can obtain one at http://mozilla.org/MPL/2.0/. -->
<svg xmlns="http://www.w3.org/2000/svg" width="16" height="16" fill="context-fill" fill-opacity="context-fill-opacity" viewBox="0 0 16 16">
    <path d="M12.25 5a.75.75 0 0 1 .75.75v5a.75.75 0 0 1-.75.75h-1.5a.75.75 0 0 1 0-1.5h.75V9h-.75a.75.75 0 0 1 0-1.5h.75v-1h-.75a.75.75 0 0 1 0-1.5zM5.25 5a.75.75 0 0 1 .75.75v2a.75.75 0 0 1-.415.67L4.5 8.964V10h.75a.75.75 0 0 1 0 1.5h-1.5a.75.75 0 0 1-.75-.75V8.5a.75.75 0 0 1 .415-.67L4.5 7.285V6.5h-.75a.75.75 0 0 1 0-1.5z" />
    <path fill-rule="evenodd" d="M8 2c1.455 0 3.056.059 4.777.213l.746.072.258.04A2.76 2.76 0 0 1 16 5.024v5.95c0 1.4-1.049 2.59-2.454 2.737a53.6 53.6 0 0 1-11.068.003A2.76 2.76 0 0 1 0 10.975v-5.95c0-1.4 1.049-2.59 2.454-2.737A54 54 0 0 1 8 2m.75 10.494a52 52 0 0 0 4.64-.274c.629-.066 1.11-.601 1.11-1.245v-5.95c0-.638-.49-1.18-1.133-1.248A52 52 0 0 0 8.75 3.51zm-1.5-8.99c-1.66.025-3.213.128-4.64.276-.629.066-1.11.601-1.11 1.245v5.95c0 .639.49 1.18 1.133 1.248 1.653.171 3.2.247 4.617.267z" clip-rule="evenodd" />
</svg>
